X:135
T: Sheila Mulhaire's
C: M.Mulhaire
Z: B.Black
R: jig
M: 6/8
L: 1/8
K: D
d/e/ | f2 a gfe | fed cAG | FAD FAD | dAF G2 d |
f2 a gfe | fed cAG | FED EFG | Adc d2 :|
A | d2 f afd | Adf afd | ecA AcA | AcA ecA |
d2 f afd | Adf afd | ecA ABc | d3 d2 :|
